X:612
T:Miss Charters
R:Reel
C:Daniel Dow
B:The Athole Collection
M:C|
L:1/8
K:G Minor
d|gaba g2 fd|cdfg agfa|gaba g2fd|cdfA G/G/G G:|
c|B/c/d BG BdgB|A/B/c AF Acfc|B/c/d BG BdgB|AG^FA G/G/G GA|
B/c/d BG BdgB|A/B/c AF AcfA|Bcd=e fgfd|cfcA G/G/G G||

